data/images/group-solid.svg

<svg width="24" height="24" viewBox="0 0 24 24" fill="#FFFFFF" xmlns="http://www.w3.org/2000/svg">
    <path d="M7.99981 10.76H7.41981C6.62832 10.7314 5.83939 10.8658 5.10198 11.1548C4.36458 11.4438 3.69444 11.8812 3.13314 12.44L2.97314 12.6267V18.1467H5.69314V15.0133L6.05981 14.6L6.22648 14.4067C7.09443 13.515 8.175 12.8589 9.36648 12.5C8.76994 12.0461 8.29947 11.4471 7.99981 10.76V10.76Z"
          fill="#FFFFFF"/>
    <path d="M20.8935 12.42C20.3323 11.8612 19.6621 11.4238 18.9247 11.1348C18.1873 10.8458 17.3984 10.7114 16.6069 10.74C16.3641 10.7407 16.1216 10.754 15.8802 10.78C15.5749 11.4246 15.1173 11.9852 14.5469 12.4133C15.8189 12.7652 16.9711 13.4566 17.8802 14.4133L18.0469 14.6L18.4069 15.0133V18.1533H21.0335V12.6067L20.8935 12.42Z"
          fill="#FFFFFF"/>
    <path d="M7.39992 9.45999H7.60658C7.51056 8.63549 7.65523 7.80081 8.02314 7.05672C8.39104 6.31263 8.96645 5.69092 9.67992 5.26666C9.42129 4.87156 9.06449 4.5504 8.64445 4.33462C8.22441 4.11885 7.75554 4.01586 7.28374 4.03574C6.81194 4.05563 6.35339 4.1977 5.95299 4.44804C5.5526 4.69839 5.22408 5.04843 4.99962 5.46389C4.77515 5.87935 4.66243 6.34598 4.67249 6.81809C4.68256 7.2902 4.81506 7.75161 5.05702 8.15713C5.29898 8.56264 5.64211 8.89837 6.05281 9.13143C6.46351 9.36449 6.9277 9.4869 7.39992 9.48666V9.45999Z"
          fill="#FFFFFF"/>
    <path d="M16.2868 8.96001C16.2949 9.11323 16.2949 9.26678 16.2868 9.42001C16.4147 9.44029 16.544 9.45143 16.6735 9.45334H16.8001C17.2703 9.42827 17.7259 9.2819 18.1227 9.02846C18.5195 8.77503 18.8439 8.42317 19.0643 8.00715C19.2847 7.59113 19.3937 7.12512 19.3806 6.6545C19.3674 6.18387 19.2327 5.72466 18.9894 5.32158C18.7461 4.9185 18.4026 4.58528 17.9923 4.35436C17.582 4.12344 17.1189 4.0027 16.6481 4.00388C16.1773 4.00507 15.7148 4.12814 15.3057 4.36112C14.8966 4.5941 14.5547 4.92904 14.3135 5.33334C14.9169 5.7273 15.413 6.26488 15.7574 6.89785C16.1018 7.53083 16.2837 8.2394 16.2868 8.96001V8.96001Z"
          fill="#FFFFFF"/>
    <path d="M11.9131 11.9467C13.5589 11.9467 14.8931 10.6125 14.8931 8.96666C14.8931 7.32086 13.5589 5.98666 11.9131 5.98666C10.2673 5.98666 8.93311 7.32086 8.93311 8.96666C8.93311 10.6125 10.2673 11.9467 11.9131 11.9467Z"
          fill="#FFFFFF"/>
    <path d="M12.0732 13.5333C11.2025 13.4982 10.3338 13.6395 9.5192 13.9489C8.70461 14.2582 7.96102 14.7291 7.33317 15.3333L7.1665 15.52V19.74C7.16911 19.8774 7.19876 20.013 7.25378 20.139C7.3088 20.265 7.3881 20.379 7.48715 20.4743C7.58621 20.5696 7.70307 20.6445 7.83108 20.6947C7.95908 20.7449 8.09571 20.7693 8.23317 20.7667H15.8932C16.0306 20.7693 16.1673 20.7449 16.2953 20.6947C16.4233 20.6445 16.5401 20.5696 16.6392 20.4743C16.7382 20.379 16.8175 20.265 16.8726 20.139C16.9276 20.013 16.9572 19.8774 16.9598 19.74V15.5333L16.7998 15.3333C16.1761 14.7273 15.4351 14.255 14.6223 13.9455C13.8095 13.636 12.9421 13.4957 12.0732 13.5333V13.5333Z"
          fill="#FFFFFF"/>
</svg>

<svg xmlns="http://www.w3.org/2000/svg" width="24" height="24" fill="#FFF">
  <path
    d="M8 10.76h-.58a5.78 5.78 0 0 0-4.287 1.68l-.16.187v5.52h2.72v-3.134l.367-.413.166-.193a7.333 7.333 0 0 1 3.14-1.907A4.393 4.393 0 0 1 8 10.76ZM20.893 12.42a5.779 5.779 0 0 0-4.286-1.68c-.243 0-.485.014-.727.04a4.393 4.393 0 0 1-1.333 1.633 7.274 7.274 0 0 1 3.333 2l.167.187.36.413v3.14h2.627v-5.546l-.14-.187ZM7.4 9.46h.207A4.3 4.3 0 0 1 9.68 5.267a2.727 2.727 0 1 0-2.28 4.22V9.46ZM16.287 8.96c.008.153.008.307 0 .46.128.02.257.031.387.033h.126a2.727 2.727 0 1 0-2.487-4.12 4.353 4.353 0 0 1 1.974 3.627ZM11.913 11.947a2.98 2.98 0 1 0 0-5.96 2.98 2.98 0 0 0 0 5.96Z"
  />
  <path
    d="M12.073 13.533a6.46 6.46 0 0 0-4.74 1.8l-.167.187v4.22a1.047 1.047 0 0 0 1.067 1.027h7.66a1.047 1.047 0 0 0 1.067-1.027v-4.207l-.16-.2a6.386 6.386 0 0 0-4.727-1.8Z"
  />
</svg>
